static/assets/images/tokens/stone.svg

<svg width="256" height="256" viewBox="0 0 256 256" fill="none" xmlns="http://www.w3.org/2000/svg">
<path d="M128 256C198.692 256 256 198.692 256 128C256 57.3075 198.692 0 128 0C57.3075 0 0 57.3075 0 128C0 198.692 57.3075 256 128 256Z" fill="black"/>
<path d="M128 256C198.692 256 256 198.692 256 128C256 57.3075 198.692 0 128 0C57.3075 0 0 57.3075 0 128C0 198.692 57.3075 256 128 256Z" fill="white"/>
<path fill-rule="evenodd" clip-rule="evenodd" d="M125.928 36.3105C125.763 36.5174 123.031 41.6917 119.843 47.7767C101.448 83.0995 83.0534 118.423 64.6596 153.746C61.5961 159.665 61.3477 160.245 61.5547 160.783C61.5961 160.949 67.8886 166.62 75.5058 173.45C91.2437 187.585 106.975 201.728 122.699 215.879C126.922 219.646 127.088 219.77 127.874 219.315C128.412 218.983 192.372 165.709 193.407 164.716C194.235 163.929 194.235 163.846 193.159 162.853C192.331 162.025 191.213 159.872 159.751 99.3126C141.825 64.8311 127.046 36.476 126.881 36.3105C126.467 35.8965 126.301 35.8965 125.928 36.3105ZM127.129 52.9096C128.205 54.6481 154.99 106.515 154.99 106.888C154.99 107.095 154.866 107.426 154.7 107.55C154.079 108.13 127.377 120.548 126.715 120.548C126.094 120.548 98.4817 107.674 98.0677 107.177C97.9849 107.095 97.9435 106.764 97.9849 106.432C98.0677 105.936 125.39 53.1579 125.887 52.5784C126.218 52.1645 126.715 52.33 127.129 52.9096ZM107.548 120.134C120.795 126.384 120.795 126.384 120.795 127.212C120.795 127.833 115.289 158.713 115.041 159.5C114.668 160.659 115.745 161.28 102.621 152.587C98.9414 149.963 95.1277 147.531 91.1956 145.302C90.6988 145.26 89.7467 145.716 82.5849 149.317C74.1397 153.581 73.6843 153.787 73.8085 152.835C73.9327 152.132 93.3483 114.794 93.8451 114.339C94.3833 113.883 93.7209 113.594 107.548 120.134ZM159.212 114.753C159.544 115.167 179.166 152.711 179.87 154.326C180.16 154.988 180.16 155.029 179.911 155.278C179.622 155.567 179.415 155.485 173.495 152.297C167.533 149.069 167.161 148.862 166.54 148.862C166.291 148.862 156.811 151.097 145.51 153.829C134.208 156.561 124.604 158.838 124.148 158.879C122.906 159.003 122.906 158.879 123.569 155.071C128.868 125.391 128.164 128.537 129.489 127.875L157.97 114.504C158.509 114.256 158.798 114.339 159.212 114.753Z" fill="#040404"/>
</svg>

<svg xmlns="http://www.w3.org/2000/svg" fill="none" viewBox="0 0 256 256"><path fill="#000" d="M128 256c70.692 0 128-57.308 128-128S198.692 0 128 0 0 57.308 0 128s57.308 128 128 128"/><path fill="#fff" d="M128 256c70.692 0 128-57.308 128-128S198.692 0 128 0 0 57.308 0 128s57.308 128 128 128"/><path fill="#040404" fill-rule="evenodd" d="M125.928 36.31c-.165.207-2.897 5.382-6.085 11.467Q92.25 100.762 64.66 153.746c-3.064 5.919-3.312 6.499-3.105 7.037.041.166 6.334 5.837 13.95 12.667a63350 63350 0 0 1 47.194 42.429c4.223 3.767 4.389 3.891 5.175 3.436.538-.332 64.498-53.606 65.533-54.599.828-.787.828-.87-.248-1.863-.828-.828-1.946-2.981-33.408-63.54-17.926-34.482-32.705-62.837-32.87-63.003-.414-.413-.58-.413-.953 0m1.201 16.6c1.076 1.738 27.861 53.605 27.861 53.978 0 .207-.124.538-.29.662-.621.58-27.323 12.998-27.985 12.998-.621 0-28.233-12.874-28.647-13.371-.083-.082-.124-.413-.083-.745.083-.496 27.405-53.274 27.902-53.854.331-.414.828-.248 1.242.332m-19.581 67.224c13.247 6.25 13.247 6.25 13.247 7.078 0 .621-5.506 31.501-5.754 32.288-.373 1.159.704 1.78-12.42-6.913a131 131 0 0 0-11.425-7.285c-.497-.042-1.45.414-8.611 4.015-8.445 4.264-8.9 4.47-8.776 3.518.124-.703 19.54-38.041 20.036-38.496.538-.456-.124-.745 13.703 5.795m51.664-5.381c.332.414 19.954 37.958 20.658 39.573.29.662.29.703.041.952-.289.289-.496.207-6.416-2.981-5.962-3.228-6.334-3.435-6.955-3.435-.249 0-9.729 2.235-21.03 4.967s-20.906 5.009-21.362 5.05c-1.242.124-1.242 0-.579-3.808 5.299-29.68 4.595-26.534 5.92-27.196l28.481-13.371c.539-.248.828-.165 1.242.249" clip-rule="evenodd"/></svg>
